fs/doctor_20_filled.svg

<svg viewBox="0 0 20 20" fill="none" xmlns="http://www.w3.org/2000/svg" height="1em" width="1em">
  <path d="M8.5 3C7.67157 3 7 3.67157 7 4.5V7.00098H4.5C3.67157 7.00098 3 7.67255 3 8.50098V11.501C3 12.3294 3.67157 13.001 4.5 13.001H7V15.5019C7 16.3303 7.67157 17.0019 8.5 17.0019H11.5C12.3284 17.0019 13 16.3304 13 15.5019V13.001H15.5C16.3284 13.001 17 12.3294 17 11.501V8.50098C17 7.67255 16.3284 7.00098 15.5 7.00098H13V4.5C13 3.67157 12.3284 3 11.5 3H8.5Z" fill="#212121"/>
</svg>

<svg viewBox="0 0 20 20" fill="none" xmlns="http://www.w3.org/2000/svg" height="1em" width="1em">
  <path d="M8.5 3A1.5 1.5 0 0 0 7 4.5v2.501H4.5a1.5 1.5 0 0 0-1.5 1.5v3a1.5 1.5 0 0 0 1.5 1.5H7v2.5a1.5 1.5 0 0 0 1.5 1.5h3a1.5 1.5 0 0 0 1.5-1.5v-2.5h2.5a1.5 1.5 0 0 0 1.5-1.5v-3a1.5 1.5 0 0 0-1.5-1.5H13V4.5A1.5 1.5 0 0 0 11.5 3h-3Z" fill="#212121"/>
</svg>
